X: 1
T: Peter Ross HIBBARD
M: 4/4
L: 1/8
R: reel
K: Bmin
|: BcdB FB B2 | FBdB f3e | ABcA  EA A2 | eAfA fedc |
BcdB FB B2 | FBdB f3e | dB B2 cA A2 | faec dB B2 :|
|: dB B2 fB B2 | Bcde f3e | cA A2 eA A2 | cdef e2 dc |
dB B2 fB B2 | Bcde f3e | cA A2 eA A2 | faec dB B2 :|
